X:1
T:Title
%%score { ( 1 3 ) | ( 2 4 5 ) }
L:1/8
M:4/2
K:F
V:1 bass nm="Grand Piano"
V:3 bass 
V:2 bass 
V:4 bass 
V:5 bass 
V:1
 z8 z4[Q:1/4=208] [B,C]4 | [F,A,CF]4 [F,B,D]4 [F,A,CF]4 [DF]2[K:treble] G2 | %2
 [A,CFA]4 [DF]2 [EG]2 [CFA]4 [FA]2 [GB]2 | z4 [Ac]4 z4 .[FA]4 | [CAc]12[K:bass][K:treble] z4 | %5
 [CAc]4 [GB]2 A2 [DGB]4 [CAc]4 | z4 .[FA]4 A4 A4 | G4 G4 G4 [Ee]4 | d8 z8 | z4 [c_e]4 z8 | %10
 z8 z4 ._A4 | [FAc]4 [Ac]4 [CGc]4 [Fd]4 | [Ec]4- [E-Bc-]4 [E-Ac-]2 [EGc]2 [A,FA]2 [GB]2 | %13
 z4 c4 z8 | [CFA]4 [CFA]4 [^CFA]4 C2- [CEG]2 | z4 [DF]4 z8 |[M:6/4] [A,F]12 |] %17
V:2
 z8 z4 G,4 | F,,4 z2 E2 A,,4 z2 E2 | [F,,F,]4 [B,,E,B,]4 [A,,F,A,]4 [G,,F,G,]4 | %3
 [F,,F,A,]4 .[F,A,]4 [F,,F,]4 [C,,C,]4 | F,8 z8 | E,4 z2 ^F2 E,4 C,4 | %6
 F,4 z2 E2 .[F,CF]4 .[F,DF]4 | .[G,B,D]4 .[E,G,C]4 [D,B,]4 .[C,C]4 | [G,F]8 [CE]4 _A2 B2 | %9
 [_A,,_A,C_Ec]4 [A,C]2[K:bass] B,2 [A,,A,CEc]4 [E,,_E,]4 | %10
 [_A,,_A,]4 [A,,A,]2 B,2 [G,,A,]4 [G,,G,]4 | z4 ._A,4 z4 G,4 | z8 C4 z4 | %13
 [F,,F,]4 .[C,,C,A,A]4 [F,,F,]4 [C,,C,]4 | [F,,F,]4 [F,,F,]4 [E,,E,]4 [E,,E,]4 | %15
 [D,,D,]4 D,,2 G,2 [C,,C,]4 [C,,C,]4 |[M:6/4] [F,,F,]12 |] %17
V:3
 x16 | z8 z4 [F,G,B,]4[K:treble] | z8 z4 B,4 | [Ac]4 z2 [G,B,]2 [A,CAc]4 C2- [CGB]2 | %4
 z4[K:bass] C,4 F,4[K:treble] [CAc]4 | x16 | [CGB]4 C2- [CG]2 z2 E2 z2 C2 | %7
 z2 F,2 z2 A,2 z2 F2 z2 E,2 | z4 =B,4 c4 c2 ^c2 | _e4 z2 ^C2 e4 [=C_A]2 [_EB]2 | %10
 [_Ec]4 [E_Ac]4 [C=EAc]4 [CE]2- [CEGB]2 | x16 | C8 z8 | [Ac]4 z2 B,2 [CAc]4 [A,F]2 [CG]2 | %14
 z8 z4 .F4 | [DFA]4 [F,A,]2 C2 [A,CF]4 [B,EG]4 |[M:6/4] x12 |] %17
V:4
 x16 | z4 B,,4 z4 G,,4 | x16 | x16 | F,,4 C,,4 F,,4 F,4 | z4 [C,C]4 z8 | z4 C,4 z8 | x16 | %8
 C4 z4 z4 _A,4 | x6[K:bass] x10 | x16 | [F,,F,]4 F,2- [F,B,]2 E,4 C2 =B,2 | z4 D4 z2 B,2 z2 G,2 | %13
 x16 | x16 | x16 |[M:6/4] x12 |] %17
V:5
 x16 | x16 | x16 | x16 | x16 | x16 | x16 | x16 | x16 | x6[K:bass] x10 | x16 | x16 | C,12 C,4 | %13
 x16 | x16 | x16 |[M:6/4] x12 |] %17

